!!!COM:	Anonymous
!!!OTL:	L'aie bien frique / J'ayme une dame / Galoise
!!!AGN:	Song; Chanson
!!!SCT:	Ano3023
!!!SCA:	Ano3023
!!!SMS:	Escorial B
!!!folio:	
!!!voices:	3
**kern	**kern	**kern
*staff3	*staff2	*staff1
*Ivox	*Ivox	*Ivox
*I"Tenor	*I"Contratenor	*I"Superius
*I'T	*I'Ct	*I'S
*clefGv2	*clefGv2	*clefG2
*k[b-]	*k[b-]	*k[]
*M3/1	*M3/1	*M3/1
*met(C3)	*met(C3)	*met(C3)
2r	1.r	2r
2r	.	2r
2c	.	2g
=1	=1	=1
1c	0.r	1.g
2c	.	.
1c	.	1.cc
2c	.	.
=2	=2	=2
1.d	0.r	1.b
1d	.	1a
2f	.	2a
=3	=3	=3
1g	0.r	2g
.	.	1dd
2f	.	.
2e	.	1cc
1d	.	.
.	.	2b
=4	=4	=4
0.c	0.r	1.cc
.	.	1.r
=5	=5	=5
1.r	1.d	1.a
1.d	1f	1.a
.	2e	.
=6	=6	=6
1.G	1d	1g
.	2B-	2f
1.c	1A	[1.e
.	2A	.
=7	=7	=7
0.A	1c	1.e]
.	2d	.
.	1e	1a
.	2e	[2a
=8	=8	=8
1.d	1.f	2a]
.	.	1b
1c	1e	1cc
2d	2f	2b
=9	=9	=9
2B-	2d	2g
1c	1e	1a
2B-	1d	1g
1A	.	.
.	2c	2f#i
=10	=10	=10
0.G	1.d	1.g
.	1.r	1r
.	.	2g
=11	=11	=11
1.c	1.e	2a
.	.	1g
1.d	1f	1cc
.	2f	2b
=12	=12	=12
1.c	1g	1.cc
.	1e	.
1.e	.	1.cc
.	1c	.
=13	=13	=13
1d	2d	1b
.	1f	.
1c	.	2a
.	1e	1a
1B-	.	.
.	2d	2g
=14	=14	=14
0.AN	0.eN	1.aN
.	.	1.r
=15	=15	=15
2c	0.r	1g
2c	.	.
2c	.	1g
1c	.	.
.	.	1e
2d	.	.
=16	=16	=16
1e	0.r	1.c
2f	.	.
1e	.	1.g
2d	.	.
=17	=17	=17
1c	0.r	1.g
2B-	.	.
2A	.	1a
1c	.	.
.	.	2g
=18	=18	=18
1c	0.r	2e
.	.	1g
2B-	.	.
2A	.	2f
1G	.	2g
.	.	2e
=19	=19	=19
1.r	1.f	1.d
1.g	1e	2r
.	.	1r
.	2e	.
=20	=20	=20
1.f	1d	1.dd
.	2B-	.
[1.e	1A	1cc
.	2A	2b
=21	=21	=21
1.e]	1c	1.g
.	2d	.
1.c	1e	1.cc
.	2e	.
=22	=22	=22
1d	1f	1b
2c	1e	2a
1A	.	1cc
.	2f	.
[2G	2g	2dd
=23	=23	=23
2G]	2d	2b
1c	2e	1a
.	2c	.
2B-	1d	1g
1A	.	.
.	2c	2f#i
=24	=24	=24
0.Gl	0.dl	0.gl
==	==	==
*-	*-	*-
!!!RDF**kern: l=long note in original notation
!!!RDF**kern: i=editorial accidental
!!!RDF**kern: N=signum congruentiae
!!!ENC:	Chris Gage 03-035-2015
!!!END:	2015/03/14/
!!!EED:	Jesse Rodin
!!!EEV:	2016/02/22/
!!!ONB:	Translated from MusicXML and edited on 2016/02/22/ by Craig Sapp
!!muse2ps: C^@{COM}\n@{SMS} @{folio}^v95,95,150Q16
